X:1
T:Title
%%score { 1 | 2 }
L:1/8
M:4/4
K:Ab
V:1 treble nm="Grand Piano"
V:2 bass 
V:1
 z4 z2 z[Q:1/4=84] [CE] | [CE][CE][CF][CG] [CA] [Ec]2 [EB] |[M:7/8] [FA][FB][FA] F E3 | %3
[M:1/8] [CE] |[M:4/4] [CE][CE][CF][CG] [CA] [Ec]2 [Ec] |[M:7/8] [EB][Ec][=DB] [Dc] B3 |[M:1/8] c | %7
[M:4/4] ddcB [Ec] [CA]2 [EA] |[M:7/8] [FA][FB][A,FA] [A,DF] [CE]3 |[M:1/8] [A,CE] | %10
[M:4/4] [A,DF][B,EG][A,EA]B c [Ee]2 [Fd] |[M:7/8] cAB B [CEA]3 |[M:1/8] c |[M:4/4] eeec e3 [EAc] | %14
 [DGB][DFA][A,EG][A,DF] [CE]3 [A,CE] | [A,DF][B,EG][A,EA]B c [Ee]2 [Ec] | [=DB][DF][DG][DA] B3 c | %17
 eeec e3 [EAc] | [DGB][DFA][A,EG][A,DF] [CE]3 [A,CE] | [A,DF][B,EG][A,EA]B c [Ee]2 [Fd] | %20
[M:7/8] cAB B [CEA]2 z |] %21
V:2
 z4 z2 z [A,,A,] | [A,,A,][A,,A,][A,,E,][A,,E,] [A,,A,] [A,,A,]2 [C,A,] | %2
[M:7/8] [D,D][D,D][D,A,] [F,A,D] [A,C]3 |[M:1/8] [A,,A,] | %4
[M:4/4] [A,,A,][A,,A,][A,,A,][A,,E,] [A,,E,] [A,,A,]2 [A,,A,] | %5
[M:7/8] [B,,G,][B,,A,][B,,F,] [B,,A,] [E,G,E]3 |[M:1/8] [E,A,E] | %7
[M:4/4] [E,B,E][E,B,E][E,A,E][E,G,E] [A,,A,] [A,,A,]2 [C,A,] |[M:7/8] [D,D][D,D]D, F, A,3 | %9
[M:1/8] A,, |[M:4/4] D,D,C,[E,G,E] [A,E] [C,A,]2 [D,A,] |[M:7/8] [E,A,E][E,CE][E,DE] [E,DE] A,,3 | %12
[M:1/8][K:treble] [A,EA] |[M:4/4] [A,CA][A,CA][A,CA][A,EA] [A,CA]3[K:bass] A,, | D,D,D,F, A,3 A,, | %15
 D,D,C,[E,G,E] [A,E] [C,A,]2 [A,,A,] | [B,,F,][B,,A,][B,,A,][B,,F,] [E,G,E]3[K:treble] [A,E] | %17
 [A,CA][A,CA][A,CA][A,EA] [A,CA]3[K:bass] A,, | D,D,D,F, A,3 A,, | %19
 D,D,C,[E,G,E] [A,E] [C,A,]2 [D,A,] |[M:7/8] [E,A,E][E,CE][E,DE] [E,DE] A,,2 z |] %21

